!!!COM: Mozart, Wolfgang Amadeus
!!!CDT: 1756/01/27/-1791/12/05/
!!!CNT: German
!!!OTL: Piano Sonata No. 17 in D major
!!!ONB: Piano Sonata No. 18 in Neue Mozart-Ausgabe [1986]
!!!SCT: K 576
!!!OMV: Mvmt. 1
!!!OMD: Allegro
!!!ODT: 1789///
**kern	**kern	**dynam
*staff2	*staff1	*staff1/2
*>[A,A,B]	*>[A,A,B]	*>[A,A,B]
*>norep[A,B]	*>norep[A,B]	*>norep[A,B]
*>A	*>A	*>A
*clefF4	*clefG2	*clefG2
*k[f#c#]	*k[f#c#]	*k[f#c#]
*D:	*D:	*D:
*M6/8	*M6/8	*M6/8
*MM124	*MM124	*MM124
8AA/	8A/	f
=1	=1	=1
8D/L	8d/L	.
8AA/	8A/	.
8D/J	8d/J	.
8F#\L	8f#/L	.
8D\	8d/	.
8F#\J	8f#/J	.
=2	=2	=2
4A\	4a/	.
8A\	8a/	.
4A\	4a/	.
*clefG2	*	*
(8g/	(16cc#t\LL	.
.	32b\L	.
.	32cc#\JJJ	.
=3	=3	=3
8f#/)	8dd\)	.
8r	8r	.
(8c#/	(16eeT\LL	.
.	32dd\L	.
.	32ee\JJJ	.
8d/)	8ff#\)	.
8r	8r	.
8G/ 8e/	(16aa\LL	.
.	16gg\JJ)	.
=4	=4	=4
!LO:S:a	!	!
[4.A/ (4.d/	(4.ff#\	.
8A/] 8c#/)	8ee\)	.
8r	8r	.
*clefF4	*	*
8BB/	8B/	f
=5	=5	=5
8E/L	8e/L	.
8BB/	8B/	.
8E/J	8e/J	.
8G\L	8g/L	.
8E\	8e/	.
8G\J	8g/J	.
=6	=6	=6
4B\	4b\	.
8B\	8b\	.
4B\	4b\	.
*clefG2	*	*
8f#/ 8a/	8dd#\	p
=7	=7	=7
4g/ 4b/	(16ff#\LL	.
.	16ee\	.
.	16gg\	.
.	16ff#\	.
8r	16aa\	.
.	16gg\JJ	.
8r	8bb\)	.
8r	8r	.
8A/ 8e/	8cc#\	.
=8	=8	=8
!LO:S:a	!	!
[4.d/ (4.g/	(4.ee\	.
8d/] 8f#/)	8ddn\)	f
8r	8r	.
*clefF4	*	*
8AA/	8r	.
=9	=9	=9
8D/L	8r	.
8AA/	8dd\L	.
8D/J	8ff#\J	.
8F#\L	8aa\L	.
8D\	8ff#\	.
8F#\J	[8ddd\J	.
=10	=10	=10
4A\	(16ddd\LL]	.
.	16ccc#\	.
.	16eee\	.
.	16ddd\	.
8A\	16ccc#\	.
.	16bb\JJ	.
4A\	16aa\LL	.
.	16bb\	.
.	16aa\	.
.	16gg\	.
(8c#\	16ff#\	.
.	16ee\JJ	.
=11	=11	=11
8d\)	16ff#\LL	.
.	16aa\	.
8r	16ff#\	.
.	16dd\	.
*clefG2	*	*
(8e/	16cc#\	.
.	16a\JJ	.
8f#/)	16dd\LL	.
.	16cc#\	.
8r	16dd\	.
.	16ff#\	.
8g/	16ee\	.
.	16gg\JJ	.
=12	=12	=12
!LO:S:a	!	!
[4.A/ (4.f#/	4.dd\	.
8A/] 8e/)	8cc#\)	.
8r	8r	.
*clefF4	*	*
8BB/	8r	.
=13	=13	=13
8E/L	8r	.
8BB/	8ee\L	.
8E/J	8gg\J	.
8G\L	8bb\L	.
8E\	8gg\	.
8G\J	[8eee\J	.
=14	=14	=14
4B\	(16eee\LL]	.
.	16ddd#\	.
.	16cccn\	.
.	16bb\	.
8B\	16aa\	.
.	16gg\JJ	.
4B\	16ff#\LL	.
.	16ee\	.
.	16dd#\	.
.	16ccn\	.
(8d#\	16b\	.
.	16a\JJ	.
=15	=15	=15
4e\)	16g\LL	.
.	16b\	.
.	16ee\	.
.	16b\	.
8r	16gg\	.
.	16ee\JJ	.
8r	8bb\L)	.
8r	8b\	.
*clefG2	*	*
8A/ 8g/	8cc#X\J	.
=16	=16	=16
(8d/L	4dd\	.
8f#/	.	.
8a/J	8r	.
8d/L	8r	.
8f#/	(16ddd\LL	.
.	16ccc#\	.
8a/J	16bb\	.
.	16aa\JJ	.
=17	=17	=17
8c#/L	16gg#\LL	.
.	16aa\	.
8e/	16gg#\	.
.	16aa\	.
8a/J	16bb\	.
.	16aa\JJ)	.
8e/L	8r	.
8g/	(16aa\LL	.
.	16ggn\	.
8a/J	16ff#\	.
.	16ee\JJ	.
=18	=18	=18
8d/L	16cc#\LL	.
.	16dd\	.
8f#/	16cc#\	.
.	16dd\	.
8a/J	16ee\	.
.	16dd\JJ)	.
8d/L	8r	.
8f#/	(16ddd\LL	.
.	16ccc#\	.
8a/J	16bb\	.
.	16aa\JJ	.
=19	=19	=19
8c#/L	16gg#\LL	.
.	16aa\	.
8e/	16gg#\	.
.	16aa\	.
8a/J	16bb\	.
.	16aa\JJ)	.
8e/L	8r	.
8g/	(16aa\LL	.
.	16ggn\	.
8a/J)	16ff#\	.
.	16ee\JJ	.
=20	=20	=20
4f#/ 4a/	16cc#\LL	.
.	16dd\	.
.	16cc#\	.
.	16dd\	.
8r	16gg\	.
.	16ff#\JJ	.
4c#/ 4a/	16dd#\LL	.
.	16ee\	.
.	16dd#\	.
.	16ee\	.
8r	16aa\	.
.	16gg\JJ	.
=21	=21	=21
*^	*	*
4d/ 4a/	4.ryy	16ee#\LL	.
.	.	16ff#\	.
.	.	16ee#\	.
.	.	16ff#\	.
8r	.	16bb\	.
.	.	16aa\JJ)	.
4.a/	(8e\L	(16aa\LL	.
.	.	16gg\	.
.	8f#\	16ff#\	.
.	.	16een\	.
.	8g\J	16dd\	.
.	.	16cc#\JJ	.
=22	=22	=22	=22
4a/	4f#\)	16cc#\LL	.
.	.	16dd\	.
.	.	16cc#\	.
.	.	16dd\	.
8r	2ryy	16gg\	.
.	.	16ff#\JJ	.
4c#/ 4a/	.	16dd#\LL	.
.	.	16ee\	.
.	.	16dd#\	.
.	.	16ee\	.
8r	.	16aa\	.
.	.	16gg\JJ	.
=23	=23	=23	=23
4d/ 4a/	4.ryy	16ee#\LL	.
.	.	16ff#\	.
.	.	16ee#\	.
.	.	16ff#\	.
8r	.	16bb\	.
.	.	16aa\JJ)	.
4.a/	(8e\L	(16aa\LL	.
.	.	16gg\	.
.	8f#\	16ff#\	.
.	.	16een\	.
.	8g\J	16dd\	.
.	.	16cc#\JJ)	.
*v	*v	*	*
=24	=24	=24
4f#/) 4a/	16r	.
.	(16dd\LL	.
.	16ff#\	.
.	16aa\	.
8e/ 8g/	16ddd\	.
.	16ccc#\JJ)	.
4d/ 4f#/	16r	.
.	(16b\LL	.
.	16dd\	.
.	16ff#\	.
8c#/ 8e/	16bb\	.
.	16aa\JJ)	.
*clefF4	*	*
=25	=25	=25
4B\ 4d\	16r	.
.	(16g\LL	.
.	16b\	.
.	16dd\	.
8A\ 8c#\	16gg\	.
.	16ff#\JJ)	.
4G\ 4B\	16r	.
.	(16e\LL	.
.	16g\	.
.	16b\	.
8G#\ 8B\	16ee\	.
.	16dd\JJ	.
=26	=26	=26
(16A\LL	8cc#\L)	.
16e\	.	.
16c#\	8aa\	.
16e\	.	.
16d\	8dd\ 8ff#\J	.
16f#\JJ	.	.
16A\LL	8cc#\ 8ee\L	.
16e\	.	.
16c#\	8aa\	.
16e\	.	.
16d\	8dd\ 8ff#\J	.
16f#\JJ	.	.
=27	=27	=27
8A\ 8c#\ 8e\)	8cc#\ 8ee\L	.
8r	8aa\	.
8AA\ 8A\	8a\J	.
8AA\ 8A\	8a/	.
8r	8r	.
8r	8ee\	.
*clefG2	*	*
=28	=28	=28
8e/L	8aa\L	.
8a/	8ee\	.
8e/J	8aa\J	.
8a/L	8ccc#\L	.
8cc#/	8aa\	.
8a/J	8ccc#\J	.
=29	=29	=29
8cc#\L	(16eee\LL	.
.	16ddd\	.
(16ee\L	16ccc#\	.
16dd\	16bb\	.
16cc#\	16aa#\	.
16b\JJ	16gg#\JJ	.
16a#/LL	16ff#\LL	.
16g#/	16ee\	.
16f#/	16dd\	.
16e/	16cc#\	.
16d/	16b\	.
16c#/JJ	16a#\JJ	.
*clefF4	*	*
=30	=30	=30
16B\LL	8b/L)	.
16A#\JJ)	.	.
8B\L	8f#/	.
8F#\J	8b/J	.
8B\L	8dd\L	.
8d\	8b\	.
8B\J	8dd\J	.
=31	=31	=31
8d\L	(16ff#\LL	.
.	16ee\	.
(16f#\L	16dd\	.
16e\	16cc#\	.
16d\	16b\	.
16c#\JJ	16a#\JJ	.
16B\LL	16dd/LL	.
16A#\	16cc#/	.
16d\	16b/	.
16c#\	16an/	.
16B\	16g#/	.
16An\JJ	16f#/JJ	.
=32	=32	=32
16G#\LL	8e/L)	.
16F#\JJ	.	.
8E\L)	8B/	.
8BB\J	8e/J	.
8E\L	8g#/L	.
8G#\	8e/	.
8E\J	8g#/J	.
=33	=33	=33
!	!LO:TX:a:i:t=legato	!
8G#\L	16b\LL	.
.	16cc#\	.
(16B\L	16dd\	.
16c#\	16cc#\	.
16d\	16b\	.
16c#\JJ	16a\JJ	.
16B\LL	16g#/LL	.
16A\	16f#/	.
16G#\	16e/	.
16F#\	16f#/	.
16G#\	16d/	.
16E\JJ	16e/JJ	.
=34	=34	=34
4A\)	16c#/LL	.
.	16e/	.
.	16d#/	.
.	16e/	.
8r	16f#/	.
.	16e/JJ	.
4A\ 4c#\	16a/LL	.
.	16e/	.
.	16d#/	.
.	16e/	.
8r	16f#/	.
.	16e/JJ	.
=35	=35	=35
4G#\	16B/LL	.
.	16e/	.
.	16d#/	.
.	16e/	.
8A\	16c#/	.
.	16e/JJ	.
8B\L	16dn/LL	.
.	16e/	.
8A\	16c#/	.
.	16e/	.
8G#\J	16B/	.
.	16e/JJ	.
=36	=36	=36
4A\	16c#/LL	.
.	16e/	.
.	16d#/	.
.	16e/	.
8r	16f#/	.
.	16e/JJ	.
4A\ 4c#\	16a/LL	.
.	16e/	.
.	16d#/	.
.	16e/	.
8r	16f#/	.
.	16e/JJ	.
=37	=37	=37
4G#\	16B/LL	.
.	16e/	.
.	16d#/	.
.	16e/	.
8A\	16c#/	.
.	16e/JJ	.
8B\L	16dn/LL	.
.	16e/	.
8A\	16c#/	.
.	16e/	.
8G#\J	16B/	.
.	16e/JJ	.
=38	=38	=38
4A\	16r	.
.	16c#/LL	.
.	16e/	.
.	16a/	.
8r	16cc#/	.
.	16ee/JJ	.
8A\ 8c#\L	16aa\LL	.
.	16gg#\	.
8B\ 8d\	16ff#\	.
.	16ee\	.
8c#\ 8e\J	16dd\	.
.	16cc#\JJ	.
=39	=39	=39
4d\ 4f#\	16r	.
.	16a#\LL	.
.	16b\	.
.	16cc#\	.
8r	16dd\	.
.	16ee\JJ	.
8B\ 8d\L	16ff#\LL	.
.	16ee\	.
8c#\ 8e\	16dd\	.
.	16cc#\	.
8d\ 8f#\J	16b\	.
.	16an\JJ	.
=40	=40	=40
*^	*	*
8r	4.E\	16e\LL	.
.	.	16cc#\	.
8A/ 8c#/L	.	16a\	.
.	.	16ee\	.
8A/ 8c#/J	.	16cc#\	.
.	.	16aa\JJ	.
8r	4.E\	4.bT\	.
8G#/ 8d/L	.	.	.
8G#/ 8d/J	.	.	.
.	.	16aq/LL	.
.	.	16bq/JJ	.
=41	=41	=41	=41
8c#/	8A\	8a/L	.
8ryy	8AA/L	8A/	.
2ryy	8AA/J	8A/J	.
.	8AA/	8A/	.
.	8r	8r	.
.	8r	(8cc#\	p
*v	*v	*	*
=42	=42	=42
!	!LO:TX:b:i:t=dolce	!
2.r	4dd\	.
.	8ee\	.
.	8ff#\L	.
.	16ee\L	.
.	16dd\	.
.	16cc#\	.
.	16b\JJ	.
=43	=43	=43
[4.E\ [4.B\ [4.d\	4.a/	.
4E\] 4B\] 4d\]	4g#/)	.
8D\ 8G#\	8f#/	.
=44	=44	=44
*	*^	*
4C#\ 4A\	(8f#/L	4.ryy	.
.	8e/)	.	.
8r	8e'/J	.	.
!	!LO:S:b	!	!
8r	(8e/L	4ryy	.
(8C#/L	8a/)	.	.
8AA/J)	8cc#/J	8a\	.
=45	=45	=45	=45
[4.E\	(4cc#/	(4.a\	.
.	8dd/)	.	.
8E\]	8b/	8g#\)	.
8r	4r	8r	.
8r	.	(8cc#\	.
*	*v	*v	*
=46	=46	=46
2.r	8dd\L)	.
.	(16dd\L	.
.	16cc#\	.
.	16ee\	.
.	16dd\JJ	.
.	16ff#\LL	.
.	16ee\	.
.	16dd\	.
.	16cc#\	.
.	16dd\	.
.	16b\JJ	.
=47	=47	=47
[4.E\ [4.B\ [4.d\	16a/LL	.
.	16g#/	.
.	16b/	.
.	16a/	.
.	16cc#/	.
.	16b/JJ	.
4E\] 4B\] 4d\]	16dd\LL	.
.	16cc#\	.
.	16ee\	.
.	16dd\	.
*clefG2	*	*
8d/ 8g#/	16ff#\	.
.	16ee\JJ	.
=48	=48	=48
8c#/ 8a/	16ee\LL	.
.	16aa\	.
8r	16gg#\	.
.	16ggn\	.
8d/ 8a/	16ff#\	.
.	16ffn\JJ	.
8c#/ 8a/	16ee\LL	.
.	16aa\	.
8r	16gg#\	.
.	16ggn\	.
8d/ 8a/	16ff#\	.
.	16ffn\JJ	.
=49	=49	=49
*^	*	*
(4.a/	(2.c#\	4.ee\	.
4.g#/ 4.b/	.	4.ee#\	fp
=50	=50	=50	=50
8f#/ 8a/)	8d\)	8ff#\)	.
8r	8r	8r	.
8r	2r	(16ff#\LL	.
.	.	16gg#\JJ	.
4r	.	16aa\LL	.
.	.	16ee#\	.
.	.	16ff#\	.
.	.	16cc#\	.
8r	.	16dd\	.
.	.	16b\JJ)	.
*v	*v	*	*
*clefF4	*	*
=51	=51	=51
8r	2.a/	.
8r	.	.
8E\ (8c#\	.	.
4Fn\ 4d\	.	.
8F#\ 8d#\)	.	.
=52	=52	=52
*^	*^	*
4.e/	2.E\	4.cc#/	4.a\	.
.	.	32cc#qq/	.	.
4.dn/	.	8b'/L	4g#\	.
.	.	8a'/	.	.
.	.	8b'/J	8r	.
*v	*v	*	*	*
*	*v	*v	*
=53	=53	=53
(8A\L	8a/	.
8c#\	8r	.
8e\J	(16dd#\LL	.
.	16ee\JJ	.
8A\L	16ff#\LL	.
.	16ee\	.
8c#\	16ddn\	.
.	16cc#\	.
8e\J	16b\	.
.	16a\JJ	.
=54	=54	=54
8E\L	16g#\LL	.
.	16a\	.
8G#\	16b\	.
.	16cc#\	.
8B\J	16dd\	.
.	16ee\JJ	.
8E\L	16ff#\LL	.
.	16gg#\	.
8G#\	16aa\	.
.	16bb\	.
8B\J)	16ccc#\	.
.	16ddd\JJ	.
=55	=55	=55
(8A\L	8ccc#\)	.
8c#\	8r	.
8e\J	(16dd#\LL	.
.	16ee\JJ	.
8A\L	16ff#\LL	.
.	16ee\	.
8c#\	16ddn\	.
.	16cc#\	.
8e\J	16b\	.
.	16a\JJ	.
=56	=56	=56
8E\L	16g#/LL	.
.	16f#/	.
8B\	16e/	.
.	16f#/	.
8d\J	16g#/	.
.	16a/JJ	.
8E\L	16b\LL	.
.	16cc#\	.
8B\	16dd\	.
.	16ee\	.
8d\J)	16ff#\	.
.	16gg#\JJ	.
=57	=57	=57
*^	*	*
(4c#/	4.A\	8aa\L	.
.	.	8ee\	.
8e/	.	8ccc#\J	.
4c#/	4.A\	8aa\L	.
.	.	8ee\	.
8e/	.	8ccc#\J	.
=58	=58	=58	=58
4c#/)	4A\	4aa\)	.
4.r	8r	8r	.
.	4r	4r	.
*v	*v	*	*
=:|!	=:|!	=:|!
*>B	*>B	*>B
8r	8r	.
=59	=59	=59
*^	*	*
(4cn/	4.A\	(8aa\L	p
.	.	8ee\	.
8e/	.	8cccn\J	.
4c/	4.A\	8aa\L	.
.	.	8ee\	.
8e/	.	8ccc\J	.
=60	=60	=60	=60
4cn/)	4A\	4aa\)	.
2ryy	8r	8r	.
.	4r	4r	.
.	8r	8r	.
=61	=61	=61	=61
4.cn/ 4.e-/	(4Fn\	(8aa\L	f
.	.	8ee-\	.
.	8G-\)	8cccn\J	.
4.c/ 4.e-/	(4F\	8aa\L	.
.	.	8ee-\	.
.	8G-\)	8ccc\J	.
=62	=62	=62	=62
4cn/ 4e-/	4Fn\	4aa\)	.
2r	8r	8r	.
.	4r	4r	.
.	8r	8fn/	.
*v	*v	*	*
=63	=63	=63
4r	8b-/L	.
.	8fn/	.
8r	8b-/J	.
4r	8dd\L	.
.	8b-\	.
8Fn\	8dd\J	.
=64	=64	=64
8B-\L	4ffn\	.
8Fn\	.	.
8B-\J	8ff\	.
8d\L	4ff\	.
8B-\	.	.
8d\J	8bb-\	.
=65	=65	=65
4fn\	(16aa\LL	.
.	16gg\	.
.	16ffn\	.
.	16gg\	.
8f\	16aa\	.
.	16bb-\JJ	.
4f\	16cccn\LL	.
.	16bb-\	.
.	16aa\	.
.	16bb-\	.
*clefG2	*	*
(8b-\	16ccc\	.
.	16ddd\JJ	.
=66	=66	=66
16a/LL	8eee-\L)	.
16g/	.	.
16fn/	8ffn\	.
16g/	.	.
16a/	[8eee-\J	.
16b-/JJ	.	.
16ccn\LL	8eee-\L]	.
16b-\	.	.
16a\	8ff\	.
16b-\	.	.
16cc\	[8eee-\J	.
16dd\JJ	.	.
=67	=67	=67
8.ee-\L	(16eee-\LL]	.
.	16fffn\	.
.	16eee-\	.
16ffn\L	16ddd\	.
16ee-\	16cccn\	.
16dd\JJ	16bb-\JJ	.
16ccn\LL	16aa\LL	.
16dd\	16bb-\	.
16cc\	16aa\	.
16b-\	16gg\	.
16a\	16ffn\	.
16g\JJ	16ee-\JJ	.
=68	=68	=68
4f#X/	16dd\LL	.
.	16ee-\	.
.	16dd\	.
.	16cccn\	.
8g/)	16ee-\	.
.	16ccc\JJ	.
(4f#/	16dd\LL	.
.	16ee-\	.
.	16dd\	.
.	16ccc\	.
8g/)	16ee-\	.
.	16ccc\JJ	.
=69	=69	=69
4f#/	16dd\LL	.
.	16cccn\	.
.	16aa\	.
.	16gg\	.
8r	16ff#X\	.
.	16ee-\JJ	.
4r	16dd\LL	.
.	16ee-\	.
.	16dd\	.
.	16ccn\	.
*clefF4	*	*
8D\	16b-\	.
.	16a\JJ)	.
=70	=70	=70
8G\L	8g/	.
8D\	8r	.
8G\J	8d/	.
8B-\L	8g/L	.
8G\	8d/	.
8B-\J	8g/J	.
=71	=71	=71
4d\	8b-/L	.
.	8g/	.
8d\	8b-/J	.
4d\	4dd\	.
*clefG2	*	*
8g/	8dd\	.
=72	=72	=72
(16f#X/LL	4dd\	.
16en/	.	.
16f#/	.	.
16d/J	.	.
8b-/J)	8gg\	.
8a/	(16ff#X\LL	.
.	16een\	.
8r	16ff#\	.
.	16dd\J	.
8g/	8bb-\J)	.
=73	=73	=73
(16f#/LL	8aa\	.
16e/	.	.
16f#/	8r	.
16d/J	.	.
8ccn/J	8aa\	.
8b-/)	(16gg\LL	.
.	16ff#\	.
8r	16gg\	.
.	16dd\J	.
8a/	8cccn\J)	.
=74	=74	=74
4.g/	(16bb-\LL	.
.	16dd\	.
.	16ee-\	.
.	16dd\	.
.	16ee-\	.
.	16dd\JJ	.
4.fn/	16aa\LL	.
.	16dd#\	.
.	16een\	.
.	16dd#\	.
.	16ee\	.
.	16dd#\JJ	.
=75	=75	=75
4e/	16gg#\LL	.
.	16aa\	.
.	16bbn\	.
.	16cccn\	.
8r	16ddd\	.
.	16ccc\JJ	.
4r	16bb\LL	.
.	16aa\	.
.	16gg#\	.
.	16ffn\	.
8r	16ee\	.
.	16dd\JJ	.
*clefF4	*	*
=76	=76	=76
16A\LL	4.ccn\)	.
16e\	.	.
16fn\	.	.
16e\	.	.
16f\	.	.
16e\JJ	.	.
16Gn\LL	4.b\	.
16e#\	.	.
16f#\	.	.
16e#\	.	.
16f#\	.	.
16e#\JJ	.	.
=77	=77	=77
4F#X\ 4f#X\	16r	.
.	(16a#\LL	.
.	16cc#X\	.
.	16ff#X\	.
8r	16aa#\	.
.	16ccc#\JJ	.
4r	16eee\LL	.
.	16ccc#\	.
.	16aa#\	.
.	16ggn\	.
8r	16ff#\	.
.	16ee\JJ	.
*clefG2	*	*
=78	=78	=78
16r	8dd\)	.
(16B/LL	.	.
16d/	8r	.
16f#/JJ	.	.
8b/)	16r	.
.	(16dd\	.
16r	8b\ 8ee#\)	.
(16G/LL	.	.
16B/	8r	.
16d/JJ	.	.
8g/)	16r	.
.	16b\ (16ee#\	.
*clefF4	*	*
=79	=79	=79
*^	*	*
8r	4.F#\	16ff#\LL	.
.	.	16cc#\	.
8A#/ 8c#/L	.	16ff#\	.
.	.	16aa#\	.
8A#/ 8c#/J	.	16ccc#\	.
.	.	16aa#\JJ	.
8r	4.F#\	16ddd\LL	.
.	.	16bb\	.
8B/ 8d/L	.	16ddd\	.
.	.	16bb\	.
8B/ 8d/J	.	16gg#\	.
.	.	16ee#\JJ	.
=80	=80	=80	=80
8r	4.F#\	16ff#\LL	.
.	.	16cc#\	.
8A#/ 8c#/L	.	16ff#\	.
.	.	16aa#\	.
8A#/ 8c#/J	.	16ccc#\	.
.	.	16aa#\JJ	.
8r	4.F#\	16ddd\LL	.
.	.	16bb\	.
8B/ 8d/L	.	16ddd\	.
.	.	16bb\	.
8B/ 8d/J	.	16gg#\	.
.	.	16ee#\JJ	.
=81	=81	=81	=81
4A#/ 4c#/	4F#\	8ff#\L	.
.	.	8cc#\	.
2r	8r	8aa#\J	.
.	4r	8ff#\L	.
.	.	8cc#\	.
.	8r	8aa#\J	.
*v	*v	*	*
*clefG2	*	*
=82	=82	=82
(8f#/L	4ff#\)	.
8c#/	.	.
8a#/J	8r	.
8f#/L	4r	.
8c#/	.	.
8a#/J	8r	.
=83	=83	=83
4f#/)	(8ff#\L	.
.	8cc#\	.
8r	8aan\J	.
4r	8ff#\L	.
.	8cc#\	.
8r	8aa\J	.
=84	=84	=84
*^	*	*
2.b/	(4.f#\	8gg#\L	.
.	.	8cc#\	.
.	.	8bb\J	.
.	4.e#\)	8gg#\L	.
.	.	8cc#\	.
.	.	8bb\J	.
=85	=85	=85	=85
(4.gn/	2.en\	8aa#\L	.
.	.	8cc#\	.
.	.	8ccc#\J	.
4.f#/)	.	8aa#\L	.
.	.	8cc#\	.
.	.	8ccc#\J	.
*v	*v	*	*
*clefF4	*	*
=86	=86	=86
(8B\L	4bb\)	.
8F#\	.	.
8d\J	8r	.
8B\L	4r	.
!	!LO:TX:i:b:t=cresc.	!
8F#\	.	.
8d\J	8r	.
=87	=87	=87
*	*^	*
8c#\L	(4.bb/	2.ee\	.
8F#\	.	.	.
8e\J	.	.	.
8c#\L	4.aa#/)	.	.
8F#\	.	.	.
8e\J	.	.	.
=88	=88	=88	=88
8d#\L	2.aan/	(4.ccn\	.
8F#\	.	.	.
8f#\J	.	.	.
8d#\L	.	4.b\)	.
8F#\	.	.	.
8f#\J	.	.	.
*	*v	*v	*
=89	=89	=89
4e\)	(8ee\L	.
.	8b\	.
8r	8ggn\J	.
4r	8ee\L	.
.	8b\	.
8r	8gg\J	.
=90	=90	=90
*^	*	*
(4.e/	2.B\	8ff#\L	.
.	.	8b\	.
.	.	8aa\J	.
4.d#/)	.	8ff#\L	.
.	.	8b\	.
.	.	8aa\J	.
=91	=91	=91	=91
2.dn/	(4.Fn\	8gg#\L	.
.	.	8b\	.
.	.	8bb\J	.
.	4.E\)	8gg#\L	.
.	.	8b\	.
.	.	8bb\J)	.
*v	*v	*	*
*clefG2	*	*
=92	=92	=92
(8c#/L	4aa\	.
8A/	.	.
8e/J	8r	.
8c#/L	4r	.
8A/	.	.
8e/J	8r	.
=93	=93	=93
*	*^	*
8d/L	2.aa/	4.b-\	.
8A/	.	.	.
8fn/J	.	.	.
8d#/L	.	4.bn\	<
8A/	.	.	.
8f#/J	.	.	.
=94	=94	=94	=94
8e/L	2.aa/	4.ccn\	.
8A/	.	.	.
8g/J	.	.	.
8e/L	.	4.cc#\	.
8A/	.	.	.
8g/J	.	.	.
=95	=95	=95	=95
8f#/L	2.aa/	4.dd\	.
8A/	.	.	.
8a/J	.	.	.
8fn/L	.	4.dd#\	.
8A/	.	.	.
8a/J	.	.	.
=96	=96	=96	=96
8e/L	2.aa/	4.ee\	.
8A/	.	.	.
8a/J	.	.	.
8dn/L	.	4.ff#\	.
8A/	.	.	.
8a/J)	.	.	.
*	*v	*v	*
=97	=97	=97
4A/ 4c#/	(16gg\LL	f
.	16aa\	.
.	16bb\	.
.	16aa\	.
8r	16gg\	.
.	16ff#\JJ	.
4r	16ee\LL	.
.	16ff#\	.
.	16gg\	.
.	16ff#\	.
8r	16ee\	.
.	16dd\JJ	.
=98	=98	=98
4r	16cc#\LL	.
.	16dd\	.
.	16ee\	.
.	16dd\	.
8r	16cc#\	.
.	16b\JJ	.
4r	16a/LL	.
.	16b/	.
.	16a/	.
.	16g/	.
*clefF4	*	*
8AA/	16f#/	.
.	16e/JJ	.
=99	=99	=99
8D/L	8d/L)	.
8AA/	8A/	.
8D/J	8d/J	.
8F#\L	8f#/L	.
8D\	8d/	.
8F#\J	8f#/J	.
=100	=100	=100
4A\	4a/	.
8A\	8a/	.
4A\	4a/	.
*clefG2	*	*
(8g/ 8a/	(16cc#\LL	p
.	32b\L	.
.	32cc#\JJJ	.
=101	=101	=101
8f#/) 8a/)	8dd\)	.
8r	8r	.
(8c#/ [8a/	(16ee\LL	.
.	32dd\L	.
.	32ee\JJJ	.
8d/) 8a/]	8ff#\)	.
8r	8r	.
8G/ 8e/	(16aa\LL	.
.	16gg\JJ)	.
=102	=102	=102
[4.A/ (4.d/	(4.ff#\	.
8A/] 8c#/)	8ee\)	.
8r	8r	.
*clefF4	*	*
8BB/	8B/	f
=103	=103	=103
8E/L	8e/L	.
8BB/	8B/	.
8E/J	8e/J	.
8G\L	8g/L	.
8E\	8e/	.
8G\J	8g/J	.
=104	=104	=104
4B\	4b\	.
8B\	8b\	.
4B\	4b\	.
*clefG2	*	*
8f#/ 8a/	8dd#\	p
=105	=105	=105
4g/ 4b/	(16ff#\LL	.
.	16ee\	.
.	16gg\	.
.	16ff#\	.
8r	16aa\	.
.	16gg\JJ	.
4r	8bb\)	.
.	8r	.
8A/ 8e/	8cc#\	.
=106	=106	=106
[4.d/ (4.g/	(4.ee\	.
8d/] 8f#/)	8ddn\)	f
8r	8r	.
*clefF4	*	*
8AA/	8r	.
=107	=107	=107
8D/L	8r	.
8AA/	8dd\L	.
8D/J	8ff#\J	.
8F#\L	8aa\L	.
8D\	8ff#\	.
8F#\J	[8ddd\J	.
=108	=108	=108
4A\	(16ddd\LL]	.
.	16ccc#\	.
.	16eee\	.
.	16ddd\	.
8A\	16ccc#\	.
.	16bb\JJ	.
8A\	16aa\LL	.
.	16bb\	.
8r	16aa\	.
.	16gg\	.
[8g\	16ff#\	.
.	16ee\JJ	.
=109	=109	=109
(16g\LL]	4dd\)	.
16f#\	.	.
16a\	.	.
16g\	.	.
16f#\	8dd\	.
16e\JJ	.	.
16d\LL	8dd\	.
16e\	.	.
16d\	8r	.
16cn\	.	.
16B\	8d/	.
16A\JJ	.	.
=110	=110	=110
8G\L)	8g/L	.
8GG\	8d/	.
8BB\J	8g/J	.
8D\L	8b/L	.
8BB\	8g/	.
[8G\J	8b/J	.
=111	=111	=111
(16G\LL]	4dd\	.
16F#\	.	.
16A\	.	.
16G\	.	.
16F#\	8dd\	.
16E\JJ	.	.
16D/LL	8dd\	.
16E/	.	.
16D/	8r	.
16Cn/	.	.
16BB/	[8ccn\	.
16AA/JJ	.	.
=112	=112	=112
8GG/)	16cc\LL]	.
.	16b\	.
8r	16dd\	.
.	16ccn\	.
[8cn\	16b\	.
.	16a\JJ	.
(16c\LL]	8g/	.
16B\	.	.
16d\	8r	.
16c\	.	.
16B\	[8cccn\	.
16A\JJ	.	.
=113	=113	=113
8G\)	(16ccc\LL]	.
.	16bb\	.
8r	16ddd\	.
.	16cccn\	.
*clefG2	*	*
[8ccn\	16bb\	.
.	16aa\JJ	.
(16cc\LL]	8gg#\)	.
16b\	.	.
16ee\	8r	.
16dd\	.	.
16cc\	[8dd\	.
16b\JJ	.	.
=114	=114	=114
8a/)	(16dd\LL]	.
.	16ccn\	.
8r	16ee\	.
.	16dd\	.
*clefF4	*	*
[8d\	16cc\	.
.	16b\JJ	.
(16d\LL]	8a/)	.
16cn\	.	.
16e\	8r	.
16d\	.	.
16c\	[8ddd\	.
16B\JJ	.	.
=115	=115	=115
8A\)	(16ddd\LL]	.
.	16cccn\	.
8r	16eee\	.
.	16ddd\	.
*clefG2	*	*
[8dd\	16ccc\	.
.	16bb\JJ	.
(16dd\LL]	8aa#\)	.
16cc#\	.	.
16ff#\	8r	.
16ee\	.	.
16dd\	[8ee\	.
16cc#\JJ	.	.
=116	=116	=116
8b\)	(16ee\LL]	.
.	16dd\	.
8r	16ff#\	.
.	16ee\	.
[8e/	16dd\	.
.	16cc#\JJ	.
(16e/LL]	8b\)	.
16d/	.	.
16g/	8r	.
16f#/	.	.
16e/	[8ff#\	.
16d/JJ	.	.
=117	=117	=117
8c#/)	(16ff#\LL]	.
.	16ee\	.
8r	16gg\	.
.	16ff#\	.
[8f#/	16ee\	.
.	16dd\JJ	.
(16f#/LL]	8cc#\)	.
16e/	.	.
16a/	8r	.
16g/	.	.
16f#/	8gg\	.
16e/JJ	.	.
=118	=118	=118
8d/)	(16ff#\LL	.
.	16dd\	.
8r	16ff#\	.
.	16aa\	.
8e/ 8g/	16ddd\	.
.	16ccc#\JJ)	.
4d/ 4f#/	16r	.
.	(16b\LL	.
.	16dd\	.
.	16ff#\	.
8c#/ 8e/	16bb\	.
.	16aa\JJ)	.
*clefF4	*	*
=119	=119	=119
4B\ 4d\	16r	.
.	(16g\LL	.
.	16b\	.
.	16dd\	.
8A\ 8c#\	16gg\	.
.	16ff#\JJ)	.
4G\ 4B\	16r	.
.	(16e\LL	.
.	16g\	.
.	16b\	.
8G#\ 8B\	16ee\	.
.	16dd\JJ	.
=120	=120	=120
(16A\LL	8cc#\L)	.
16e\	.	.
16c#\	8aa\	.
16e\	.	.
16d\	8dd\ 8ff#\J	.
16f#\JJ	.	.
16A\LL	8cc#\ 8ee\L	.
16e\	.	.
16c#\	8aa\	.
16e\	.	.
16d\	8dd\ 8ff#\J	.
16f#\JJ)	.	.
=121	=121	=121
8A\ 8c#\ 8e\	8cc#\ 8ee\L	.
8r	8aa\	.
8AA\ 8A\	8a\J	.
8AA\ 8A\	8a/	.
8r	8r	.
8r	(8f#/	p
=122	=122	=122
2.r	4g/	.
.	8a/	.
.	8b/L	.
.	16a/L	.
.	16g/	.
.	16f#/	.
.	16e/JJ	.
=123	=123	=123
[4.AA/ [4.E/ [4.G/	4.d/	.
4AA/] 4E/] 4G/]	4c#/)	.
8GG/ 8C#/	8B/	.
=124	=124	=124
4FF#/ 4D/	(8B/L	.
.	8A/)	.
8r	8A'/J	.
8r	(8A/L	.
(8FF#/L	8d/)	.
8DD/J)	8d'/ 8f#'/J	.
=125	=125	=125
[4.AA/	4d/ 4f#/	.
.	8e/ 8g/	.
8AA/]	8c#/ 8e/	.
8r	8r	.
8r	(8f#/	.
=126	=126	=126
2.r	4g/	.
.	8a/	.
.	8b/L	.
.	16a/L	.
.	16g/	.
.	16f#/	.
.	16e/JJ)	.
=127	=127	=127
[4.AA/ 4.E/ [4.G/	(4.d/	.
4AA/] 4E/ 4G/]	8c#/L)	.
.	(8b/	.
8GG/ 8C#/	8a/J)	.
=128	=128	=128
8FF#/ 8D/	(8a/L	.
8r	8dd/)	.
8BB\ 8G\	8d'/J	.
8AA\ 8A\	8d/ 8f#/	.
8r	8r	.
8AA\ 8G\	8c#/ 8e/	.
=129	=129	=129
[4.D\ (4.G\	(4.c#/ (4.e/	.
8D\] 8F#\)	8d/)	.
8r	8r	.
8r	(8ff#\	.
=130	=130	=130
2.r	8gg\L)	.
.	(16gg\L	.
.	16ff#\	.
.	16aa\	.
.	16gg\JJ	.
.	16bb\LL	.
.	16aa\	.
.	16gg\	.
.	16ff#\	.
.	16gg\	.
.	16ee\JJ	.
*clefG2	*	*
=131	=131	=131
[4.A/ [4.e/ [4.g/	4dd\	.
.	16ee\LL	.
.	16dd\JJ	.
4A/] 4e/] 4g/]	4cc#\)	.
8B/ 8d/ 8g#/	8b\	.
=132	=132	=132
(4.c#/ 4.e/ 4.gn/	(8b/L	.
.	8a/)	.
.	8a'/J	.
4.d/) 4.f#/	(8a\L	.
.	8dd\)	.
.	8dd'\ 8ff#'\J	.
=133	=133	=133
[4.A/ [4.a/	4dd\ (4ff#\	.
.	8ee\ 8gg\)	.
8A/] 8a/]	8cc#'\ 8ee'\	.
8r	8r	.
8r	(8ff#\	.
=134	=134	=134
2.r	8gg\L)	.
.	(16gg\L	.
.	16ff#\	.
.	16aa\	.
.	16gg\JJ	.
.	16bb\LL	.
.	16aa\	.
.	16gg\	.
.	16ff#\	.
.	16gg\	.
.	16ee\JJ	.
=135	=135	=135
2.g/ 2.a/	16dd\LL	.
.	16cc#\	.
.	16ee\	.
.	16dd\	.
.	16ff#\	.
.	16ee\JJ	.
.	16gg\LL	.
.	16ff#\	.
.	16aa\	.
.	16gg\	.
.	16bb\)	.
.	16aa\JJ	.
=136	=136	=136
8r	(4.aa\	.
8fn/ 8dd#/L	.	.
8f/ 8dd#/J	.	.
8r	4.gg#\)	.
8e/ 8ddn/L	.	.
8e/ 8dd/J	.	.
=137	=137	=137
8r	(4.ggn\	.
8b\ 8dd\L	.	.
8b\ 8dd\J	.	.
8a#\ 8cc#\	8ff#\)	.
8r	8r	.
8r	8f#/	f
*clefF4	*	*
=138	=138	=138
8F#\L	8b/L	.
8B\	8f#/	.
8F#\J	8b/J	.
8B\L	8dd\L	.
8d\	8b\	.
8B\J	8dd\J	.
=139	=139	=139
8d\L	(16ff#\LL	.
.	16ee\	.
(16f#\L	16dd\	.
16e\	16cc#\	.
16d\	16b\	.
16c#\JJ	16a#\JJ	.
16B\LL	16dd/LL	.
16A#\	16cc#/	.
16d\	16b/	.
16c#\	16an/	.
16B\	16g/	.
16An\JJ	16f#/JJ	.
=140	=140	=140
16G\LL	8e/L)	.
16F#\JJ	.	.
8E\L)	8B/	.
8BB\J	8e/J	.
8E\L	8g/L	.
8G\	8e/	.
8E\J	8g/J	.
=141	=141	=141
8G\L	(16b/LL	.
.	16a/	.
(16B\L	16g/	.
16A\	16f#/	.
16G\	16e/	.
16F#\JJ	16d#/JJ)	.
16E\LL	(16gg\LL	.
16D#\)	16ff#\	.
(16g\	16ee\	.
16f#\	16ddn\	.
16e\	16cc#\	.
16dn\JJ	16b\JJ	.
=142	=142	=142
16c#\LL	8a/L)	.
16B\JJ	.	.
8A\L)	8e/	.
8E\J	8a/J	.
8A\L	8cc#/L	.
8c#\	8a/	.
8A\J	8cc#/J	.
=143	=143	=143
8c#\L	(16ee\LL	.
.	16ff#\	.
(16e\L	16gg\	.
16f#\	16ff#\	.
16g\	16ee\	.
16f#\JJ	16dd\JJ	.
16e\LL	16cc#/LL	.
16d\	16b/	.
16c#\	16a/	.
16B\	16b/	.
16c#\	16g/	.
16A\JJ	16a/JJ	.
=144	=144	=144
4d\)	16f#/LL	.
.	16a/	.
.	16g#/	.
.	16a/	.
8r	16b/	.
.	16a/JJ	.
4d\ 4f#\	16dd/LL	.
.	16a/	.
.	16g#/	.
.	16a/	.
8r	16b/	.
.	16a/JJ	.
=145	=145	=145
4c#\	16e/LL	.
.	16a/	.
.	16g#/	.
.	16a/	.
8d\	16f#/	.
.	16a/JJ	.
8e\L	16gn/LL	.
.	16a/	.
8d\	16f#/	.
.	16a/	.
8c#\J	16e/	.
.	16a/JJ)	.
=146	=146	=146
4d\ 4f#\	16r	.
.	(16aa\LL	.
.	16gg#\	.
.	16aa\	.
8r	16bb\	.
.	16aa\JJ	.
*clefG2	*	*
4dd\ 4ff#\	16ddd\LL	.
.	16aa\	.
.	16gg#\	.
.	16aa\	.
8r	16bb\	.
.	16aa\JJ	.
=147	=147	=147
4cc#\	16ee\LL	.
.	16aa\	.
.	16gg#\	.
.	16aa\	.
8dd\	16ff#\	.
.	16aa\JJ	.
8ee\L	16ggn\LL	.
.	16aa\	.
8dd\	16ff#\	.
.	16aa\	.
8cc#\J	16ee\	.
.	16aa\JJ)	.
=148	=148	=148
4dd\	16r	.
.	(16ff#\LL	.
.	16gg\	.
.	16aa\	.
8r	16bb\	.
.	16ccc#\JJ	.
(8d/ 8f#/L	16ddd\LL	.
.	16ccc#\	.
8e/ 8g/	16bb\	.
.	16aa\	.
8f#/) 8a/J	16gg\	.
.	16ff#\JJ)	.
=149	=149	=149
4g/ 4b/	16r	.
.	(16dd#\LL	.
.	16ee\	.
.	16ff#\	.
8r	16gg\	.
.	16aa\JJ	.
(8e/ 8g/L	16bb\LL	.
.	16aa\	.
8f#/ 8a/	16gg\	.
.	16ff#\	.
8g/) 8b/J	16ee\	.
.	16ddn\JJ)	.
=150	=150	=150
*^	*	*
8r	4.A\	16r	.
.	.	(16g#\LL	.
8d/ 8f#/L	.	16b\	.
.	.	16a\	.
8d/ 8f#/J	.	16cc#\	.
.	.	16b\JJ	.
8r	4.A\	16dd\LL	.
.	.	16cc#\	.
8d/ 8f#/L	.	16ee\	.
.	.	16dd\	.
8d/ 8f#/J	.	16ff#\	.
.	.	16ee\JJ	.
=151	=151	=151	=151
8r	4.A\	16ggn\LL	.
.	.	16ff#\	.
8d/ 8f#/L	.	16aa\	.
.	.	16gg\	.
8d/ 8f#/J	.	16bb\	.
.	.	16aa\JJ	.
8r	4.A\	16ccc#\LL	.
.	.	16bb\	.
8d/ 8f#/L	.	16ddd\	.
.	.	16ccc#\	.
8d/ 8f#/J	.	16eee\	.
.	.	16ddd\JJ	.
*v	*v	*	*
=152	=152	=152
4G#/ 4B/ 4d/ 4fn/	8fffn\)	.
.	8r	.
8r	(16bb\LL	.
.	16ccc#\JJ	.
4r	16ddd\LL	.
.	16gg#\	.
.	16bb\	.
.	16dd\	.
8r	16ffn\	.
.	16b\JJ	.
=153	=153	=153
*^	*	*
8r	4r	2.dd\)	p
8r	.	.	.
(8f#/	8A\	.	.
4g/	4B-\	.	.
8g#/)	8Bn\	.	.
=154	=154	=154	=154
*	*	*^	*
4.a/	2.A\	4.ff#/	4.dd\	.
*	*	*v	*v	*
.	.	32ff#q/	.
*	*	*^	*
4.gn/	.	8ee'/L	4.cc#\	.
.	.	8dd'/	.	.
.	.	8ee'/J	.	.
*v	*v	*	*	*
*	*v	*v	*
=155	=155	=155
(8d/L	8dd\	.
8f#/	8r	.
8a/J	(16gg#\LL	.
.	16aa\JJ	.
8d/L	16bb\LL	.
.	16aa\	.
8f#/	16ggn\	.
.	16ff#\	.
8a/J	16ee\	.
.	16dd\JJ)	.
=156	=156	=156
8A/L	16cc#\LL	.
.	16dd\	.
8c#/	16dd#\	.
.	16ee\	.
8e/J	16ffn\	.
.	16ff#\JJ	.
8A/L	16gg\LL	.
.	16gg#\	.
8d/	16aa\	.
.	16aa#\	.
8e/J)	16bb\	.
.	16ggn\JJ	.
=157	=157	=157
(8d/L	8ff#\	.
8f#/	8r	.
8a/J	(16gg#\LL	.
.	16aan\JJ	.
8d/L	16bb\LL	.
.	16aa\	.
8f#/	16ggn\	.
.	16ff#\	.
8a/J	16ee\	.
.	16ddn\JJ	.
=158	=158	=158
8A/L	16cc#\LL	.
.	16dd\	.
8e/	16dd#\	.
.	16ee\	.
8g/J	16ffn\	.
.	16ff#\JJ	.
8A/L	16gg\LL	.
.	16aa\	.
8e/	16bb\	.
.	16gg\	.
8g/J)	16ee\	.
.	16cc#\JJ	.
=159	=159	=159
*^	*	*
(4f#/	4.d\	8ddn\L	.
.	.	8a\	.
8a/	.	8ff#\J	.
4f#/	4.d\	8dd\L	.
.	.	8a\	.
8a/	.	8ff#\J	.
=160	=160	=160	=160
4f#/)	4d\	4dd\)	.
8r	4.r	8r	.
4r	.	4r	.
*v	*v	*	*
==	==	==
*-	*-	*-
!!!SMS: Alte Mozart-Ausgabe, Band 20, Breitkopf &amp; H&auml;rtel 1877-1883.
!!!ONB: Stich und Druck von Breitkopf &amp; H&auml;rtel in Leipzig
!!!ONB: Ausgegeben 1878
!!!ENC: Craig Stuart Sapp
!!!END: 2009/10/07/
!!!title: @{OTL}, K 576, @{OMV}
!!!hum2abc: --no-tempo -s 0.65 --spacing 2.0 -p "%gracespace  0 6.0 12.0"
!!!ONB: Not proofread
